X:14
T:The Tadpole
C:Mike Mahar
L:1/8
Q:1/4=200
M:2/2
K:C
|: "Am"edcB edcB | ABcd e4 | "Dm"f2f2 "Am"e2e2 | "Dm"edc2 "Em"B4 |
|"Am"edcB edcB | \
ABcd e4 | "Dm"f2f2 "Am"e2e2 | "Em"edcB "Am"A4 :|
|: "Am"a2a2 "G"g2g2 | "Dm"fgf2 "Em"e4 |  "Dm"d2ef "Em"e2d2 | "Am"c2d2 "Em"e4 |
"Am"a2a2 "G"g2g2 | "Dm"fgf2 "Em"e4 | "Dm"d2ef "Em"e2d2 | \
"Dm"c2B2 "Am"A4 :|

